assets/Airplane/Flat/airplane_flat.svg

<svg width="32" height="32" viewBox="0 0 32 32" fill="none" xmlns="http://www.w3.org/2000/svg">
<path d="M14.9998 5.5L16.6147 4.98752L16.6662 4.93638C17.1092 4.49106 17.1092 3.78065 16.6768 3.33532C16.2443 2.88999 15.5272 2.89002 15.0842 3.32474L14.0215 4.38018L14.9998 5.5ZM28.659 17.9364L27.9804 18.6117L26.9998 17.5L27.4424 16.0851C27.8529 15.9163 28.3427 15.9981 28.6695 16.3353C29.1116 16.77 29.1116 17.4911 28.659 17.9364Z" fill="#9B9B9B"/>
<path d="M14.1209 28.8751L12.7723 23.3207C14.5105 22.308 16.1288 21.1049 17.5973 19.7113L21.0251 16.4565L24.4676 14.906L26.411 11.3426L28.7058 9.16379C30.394 7.5596 30.434 4.88261 28.8057 3.2283C27.1674 1.57399 24.5001 1.59405 22.8818 3.26841L20.3602 5.89209L16.2607 7.61854L15.2234 11.2368L12.2628 14.3172C10.8643 15.781 9.63554 17.3952 8.6166 19.1297L3.09231 17.7261C2.78264 17.6459 2.46297 17.7361 2.2332 17.9567C1.79366 18.3978 2.03342 18.9493 2.47296 19.4105L12.4227 29.4968C12.9121 30.0181 13.4316 30.1886 13.8712 29.7474C14.1109 29.5068 14.2008 29.186 14.1209 28.8751Z" fill="#CDC4D6"/>
<path d="M27.7929 5.76988L26.2533 4.21808C25.9708 3.92892 25.503 3.92894 25.2205 4.20846C24.9282 4.48797 24.9282 4.95062 25.2107 5.23013L26.7503 6.78191C27.0329 7.07106 27.5006 7.07107 27.7831 6.79156C28.0657 6.51204 28.0755 6.05904 27.7929 5.76988Z" fill="#00A6ED"/>
<path d="M15.2156 11.2449L20.3817 5.8697L8.34626 3.051C7.88626 2.941 7.39625 3.011 6.97625 3.241C5.67625 3.971 5.67625 5.83101 6.96625 6.56101L15.2156 11.2449ZM26.4293 11.3253L21.0085 16.4723L25.46 24.7C26.16 26.01 28.03 26.04 28.78 24.76C29.02 24.35 29.1 23.87 29 23.4L26.4293 11.3253ZM8.15643 22.3151C8.57618 21.8934 9.26303 21.8934 9.68277 22.3246C10.1121 22.7463 10.1025 23.4363 9.67323 23.8579L6.83996 26.6849C6.42022 27.1066 5.73337 27.1066 5.31362 26.6754C4.89388 26.2537 4.89388 25.5637 5.32317 25.1421L8.15643 22.3151Z" fill="#0084CE"/>
</svg>

<svg xmlns="http://www.w3.org/2000/svg" width="32" height="32" fill="none"><path fill="#9B9B9B" d="m15 5.5 1.615-.512.051-.052a1.14 1.14 0 0 0 .01-1.6 1.126 1.126 0 0 0-1.592-.011L14.021 4.38 15 5.5Zm13.659 12.436-.679.676L27 17.5l.442-1.415c.41-.169.9-.087 1.227.25a1.123 1.123 0 0 1-.01 1.601Z"/><path fill="#CDC4D6" d="m14.12 28.875-1.348-5.554a26.028 26.028 0 0 0 4.825-3.61l3.428-3.255 3.443-1.55 1.943-3.563 2.295-2.18a4.163 4.163 0 0 0 .1-5.935 4.138 4.138 0 0 0-5.924.04L20.36 5.892l-4.1 1.727-1.037 3.618-2.96 3.08a26.163 26.163 0 0 0-3.646 4.813l-5.525-1.404a.906.906 0 0 0-.859.23c-.44.442-.2.993.24 1.454l9.95 10.087c.49.521 1.009.692 1.448.25.24-.24.33-.561.25-.872Z"/><path fill="#00A6ED" d="m27.793 5.77-1.54-1.552a.732.732 0 0 0-1.032-.01.713.713 0 0 0-.01 1.022l1.54 1.552c.282.29.75.29 1.032.01a.722.722 0 0 0 .01-1.022Z"/><path fill="#0084CE" d="m15.216 11.245 5.166-5.375L8.346 3.05c-.46-.11-.95-.04-1.37.19-1.3.73-1.3 2.59-.01 3.32l8.25 4.684Zm11.213.08-5.42 5.147L25.46 24.7c.7 1.31 2.57 1.34 3.32.06.24-.41.32-.89.22-1.36l-2.57-12.075ZM8.156 22.315a1.07 1.07 0 0 1 1.527.01c.43.421.42 1.111-.01 1.533L6.84 26.685a1.07 1.07 0 0 1-1.526-.01 1.082 1.082 0 0 1 .01-1.533l2.832-2.827Z"/></svg>
